static/img/kroki/a254b0f3779d3b82c172dbbc39366df8.svg

<?xml version="1.0" encoding="us-ascii" standalone="no"?><svg xmlns="http://www.w3.org/2000/svg" xmlns:xlink="http://www.w3.org/1999/xlink" contentStyleType="text/css" height="352px" preserveAspectRatio="none" style="width:585px;height:352px;" version="1.1" viewBox="0 0 585 352" width="585px" zoomAndPan="magnify"><defs/><g><!--class aws_api_gateway_authorizer--><g id="elem_aws_api_gateway_authorizer"><rect codeLine="22" fill="#3D176E" height="39.7891" id="aws_api_gateway_authorizer" rx="2.5" ry="2.5" style="stroke:#000D19;stroke-width:0.5;" width="285" x="16.15" y="206.58"/><ellipse cx="31.15" cy="226.4745" fill="#ADD1B2" rx="11" ry="11" style="stroke:#181818;stroke-width:1.0;"/><path d="M34.1188,232.1152 Q33.5406,232.412 32.9,232.5527 Q32.2594,232.7089 31.5563,232.7089 Q29.0563,232.7089 27.7281,231.0683 Q26.4156,229.412 26.4156,226.287 Q26.4156,223.162 27.7281,221.5058 Q29.0563,219.8495 31.5563,219.8495 Q32.2594,219.8495 32.9,220.0058 Q33.5563,220.162 34.1188,220.4589 L34.1188,223.1777 Q33.4938,222.5995 32.9,222.3339 Q32.3063,222.0527 31.6813,222.0527 Q30.3375,222.0527 29.65,223.1308 Q28.9625,224.1933 28.9625,226.287 Q28.9625,228.3808 29.65,229.4589 Q30.3375,230.5214 31.6813,230.5214 Q32.3063,230.5214 32.9,230.2558 Q33.4938,229.9745 34.1188,229.3964 L34.1188,232.1152 Z " fill="#000000"/><text fill="#D9B8FF" font-family="Helvetica" font-size="17" lengthAdjust="spacing" textLength="243" x="50.15" y="232.3598">aws_api_gateway_authorizer</text></g><!--class aws_api_gateway_resource--><g id="elem_aws_api_gateway_resource"><rect codeLine="24" fill="#3D176E" height="39.7891" id="aws_api_gateway_resource" rx="2.5" ry="2.5" style="stroke:#000D19;stroke-width:0.5;" width="270" x="245.65" y="106.79"/><ellipse cx="260.65" cy="126.6845" fill="#ADD1B2" rx="11" ry="11" style="stroke:#181818;stroke-width:1.0;"/><path d="M263.6188,132.3252 Q263.0406,132.622 262.4,132.7627 Q261.7594,132.9189 261.0563,132.9189 Q258.5563,132.9189 257.2281,131.2783 Q255.9156,129.622 255.9156,126.497 Q255.9156,123.372 257.2281,121.7158 Q258.5563,120.0595 261.0563,120.0595 Q261.7594,120.0595 262.4,120.2158 Q263.0563,120.372 263.6188,120.6689 L263.6188,123.3877 Q262.9938,122.8095 262.4,122.5439 Q261.8063,122.2627 261.1813,122.2627 Q259.8375,122.2627 259.15,123.3408 Q258.4625,124.4033 258.4625,126.497 Q258.4625,128.5908 259.15,129.6689 Q259.8375,130.7314 261.1813,130.7314 Q261.8063,130.7314 262.4,130.4658 Q262.9938,130.1845 263.6188,129.6064 L263.6188,132.3252 Z " fill="#000000"/><text fill="#D9B8FF" font-family="Helvetica" font-size="17" lengthAdjust="spacing" textLength="228" x="279.65" y="132.5698">aws_api_gateway_resource</text></g><!--class aws_api_gateway_rest_api--><g id="elem_aws_api_gateway_rest_api"><rect codeLine="26" fill="#3D176E" height="39.7891" id="aws_api_gateway_rest_api" rx="2.5" ry="2.5" style="stroke:#000D19;stroke-width:0.5;" width="265" x="248.15" y="7"/><ellipse cx="263.15" cy="26.8945" fill="#ADD1B2" rx="11" ry="11" style="stroke:#181818;stroke-width:1.0;"/><path d="M266.1188,32.5352 Q265.5406,32.832 264.9,32.9727 Q264.2594,33.1289 263.5563,33.1289 Q261.0563,33.1289 259.7281,31.4883 Q258.4156,29.832 258.4156,26.707 Q258.4156,23.582 259.7281,21.9258 Q261.0563,20.2695 263.5563,20.2695 Q264.2594,20.2695 264.9,20.4258 Q265.5563,20.582 266.1188,20.8789 L266.1188,23.5977 Q265.4938,23.0195 264.9,22.7539 Q264.3063,22.4727 263.6813,22.4727 Q262.3375,22.4727 261.65,23.5508 Q260.9625,24.6133 260.9625,26.707 Q260.9625,28.8008 261.65,29.8789 Q262.3375,30.9414 263.6813,30.9414 Q264.3063,30.9414 264.9,30.6758 Q265.4938,30.3945 266.1188,29.8164 L266.1188,32.5352 Z " fill="#000000"/><text fill="#D9B8FF" font-family="Helvetica" font-size="17" lengthAdjust="spacing" textLength="223" x="282.15" y="32.7798">aws_api_gateway_rest_api</text></g><!--class aws_iam_role--><g id="elem_aws_iam_role"><rect codeLine="28" fill="#3D176E" height="39.7891" id="aws_iam_role" rx="2.5" ry="2.5" style="stroke:#000D19;stroke-width:0.5;" width="157" x="53.15" y="106.79"/><ellipse cx="68.15" cy="126.6845" fill="#ADD1B2" rx="11" ry="11" style="stroke:#181818;stroke-width:1.0;"/><path d="M71.1188,132.3252 Q70.5406,132.622 69.9,132.7627 Q69.2594,132.9189 68.5563,132.9189 Q66.0563,132.9189 64.7281,131.2783 Q63.4156,129.622 63.4156,126.497 Q63.4156,123.372 64.7281,121.7158 Q66.0563,120.0595 68.5563,120.0595 Q69.2594,120.0595 69.9,120.2158 Q70.5563,120.372 71.1188,120.6689 L71.1188,123.3877 Q70.4938,122.8095 69.9,122.5439 Q69.3063,122.2627 68.6813,122.2627 Q67.3375,122.2627 66.65,123.3408 Q65.9625,124.4033 65.9625,126.497 Q65.9625,128.5908 66.65,129.6689 Q67.3375,130.7314 68.6813,130.7314 Q69.3063,130.7314 69.9,130.4658 Q70.4938,130.1845 71.1188,129.6064 L71.1188,132.3252 Z " fill="#000000"/><text fill="#D9B8FF" font-family="Helvetica" font-size="17" lengthAdjust="spacing" textLength="115" x="87.15" y="132.5698">aws_iam_role</text></g><!--class aws_lambda_function--><g id="elem_aws_lambda_function"><rect codeLine="30" fill="#3D176E" height="39.7891" id="aws_lambda_function" rx="2.5" ry="2.5" style="stroke:#000D19;stroke-width:0.5;" width="224" x="268.65" y="306.37"/><ellipse cx="283.65" cy="326.2645" fill="#ADD1B2" rx="11" ry="11" style="stroke:#181818;stroke-width:1.0;"/><path d="M286.6188,331.9052 Q286.0406,332.202 285.4,332.3427 Q284.7594,332.4989 284.0563,332.4989 Q281.5563,332.4989 280.2281,330.8583 Q278.9156,329.202 278.9156,326.077 Q278.9156,322.952 280.2281,321.2958 Q281.5563,319.6395 284.0563,319.6395 Q284.7594,319.6395 285.4,319.7958 Q286.0563,319.952 286.6188,320.2489 L286.6188,322.9677 Q285.9938,322.3895 285.4,322.1239 Q284.8063,321.8427 284.1813,321.8427 Q282.8375,321.8427 282.15,322.9208 Q281.4625,323.9833 281.4625,326.077 Q281.4625,328.1708 282.15,329.2489 Q282.8375,330.3114 284.1813,330.3114 Q284.8063,330.3114 285.4,330.0458 Q285.9938,329.7645 286.6188,329.1864 L286.6188,331.9052 Z " fill="#000000"/><text fill="#D9B8FF" font-family="Helvetica" font-size="17" lengthAdjust="spacing" textLength="182" x="302.65" y="332.1498">aws_lambda_function</text></g><!--link aws_api_gateway_authorizer to aws_lambda_function--><g id="link_aws_api_gateway_authorizer_aws_lambda_function"><path codeLine="32" d="M202.51,246.8 C239.76,263.2 293.16,286.73 331.77,303.74 " fill="none" id="aws_api_gateway_authorizer-to-aws_lambda_function" style="stroke:#1A83AF;stroke-width:2.0;"/><polygon fill="#1A83AF" points="335.88,305.99,329.2569,298.7006,331.3045,303.9739,326.0312,306.0215,335.88,305.99" style="stroke:#1A83AF;stroke-width:2.0;"/></g><!--link aws_api_gateway_resource to aws_api_gateway_authorizer--><g id="link_aws_api_gateway_resource_aws_api_gateway_authorizer"><path codeLine="33" d="M336.79,147.01 C299.54,163.41 246.14,186.94 207.53,203.95 " fill="none" id="aws_api_gateway_resource-to-aws_api_gateway_authorizer" style="stroke:#1A83AF;stroke-width:2.0;"/><polygon fill="#1A83AF" points="203.42,206.2,213.2688,206.2315,207.9955,204.1839,210.0431,198.9106,203.42,206.2" style="stroke:#1A83AF;stroke-width:2.0;"/></g><!--link aws_api_gateway_resource to aws_lambda_function--><g id="link_aws_api_gateway_resource_aws_lambda_function"><path codeLine="34" d="M380.65,146.99 C380.65,182.99 380.65,260.34 380.65,300.27 " fill="none" id="aws_api_gateway_resource-to-aws_lambda_function" style="stroke:#1A83AF;stroke-width:2.0;"/><polygon fill="#1A83AF" points="380.65,304.88,384.65,295.88,380.65,299.88,376.65,295.88,380.65,304.88" style="stroke:#1A83AF;stroke-width:2.0;"/></g><!--link aws_api_gateway_rest_api to aws_api_gateway_authorizer--><g id="link_aws_api_gateway_rest_api_aws_api_gateway_authorizer"><path codeLine="35" d="M247.93,41.22 C162.41,52.87 62.36,73.28 35.65,106.79 C6,143.99 61.72,181.15 107.52,203.72 " fill="none" id="aws_api_gateway_rest_api-to-aws_api_gateway_authorizer" style="stroke:#1A83AF;stroke-width:2.0;"/><polygon fill="#1A83AF" points="111.77,206.27,105.4027,198.7562,107.2669,204.0971,101.926,205.9612,111.77,206.27" style="stroke:#1A83AF;stroke-width:2.0;"/></g><!--link aws_api_gateway_rest_api to aws_api_gateway_resource--><g id="link_aws_api_gateway_rest_api_aws_api_gateway_resource"><path codeLine="36" d="M380.65,47.22 C380.65,62.49 380.65,83.92 380.65,100.53 " fill="none" id="aws_api_gateway_rest_api-to-aws_api_gateway_resource" style="stroke:#1A83AF;stroke-width:2.0;"/><polygon fill="#1A83AF" points="380.65,105.41,384.65,96.41,380.65,100.41,376.65,96.41,380.65,105.41" style="stroke:#1A83AF;stroke-width:2.0;"/></g><!--link aws_api_gateway_rest_api to aws_lambda_function--><g id="link_aws_api_gateway_rest_api_aws_lambda_function"><path codeLine="37" d="M454.08,47.25 C484.2,59.2 516.07,77.96 533.65,106.79 C578.89,181.02 475.51,263.86 417.15,302.77 " fill="none" id="aws_api_gateway_rest_api-to-aws_lambda_function" style="stroke:#1A83AF;stroke-width:2.0;"/><polygon fill="#1A83AF" points="413.34,305.95,423.0576,304.3476,417.5178,303.203,418.6624,297.6631,413.34,305.95" style="stroke:#1A83AF;stroke-width:2.0;"/></g><!--link aws_iam_role to aws_api_gateway_authorizer--><g id="link_aws_iam_role_aws_api_gateway_authorizer"><path codeLine="38" d="M136.98,147.01 C141.24,162.41 147.22,184.08 151.82,200.75 " fill="none" id="aws_iam_role-to-aws_api_gateway_authorizer" style="stroke:#1A83AF;stroke-width:2.0;"/><polygon fill="#1A83AF" points="153.33,205.2,154.7917,195.4602,151.9999,200.3802,147.0799,197.5884,153.33,205.2" style="stroke:#1A83AF;stroke-width:2.0;"/></g><!--SRC=[fP5DQy9048Rl_ee5puAfjEgbO0LfBr9gRwM4INRMB2QxONRIO4l_UurMIVEbqklEC_C-CnjfYGAJbBSYmIH0SZstqIO5WaJCY6m-jx4bqLSAr6XSBIwiuRF04X8KZnX_8EiGgiHhfCEDGUV4JQdq0E5cJJOpyZ2U2OpRbT1mYPh7uDoCcNIGCPPav3IOA5KbgqFx8-cDxx26MP98lyXmE9JUj8gSZUhS-qIiz2SAhtoqfMMiQTOYzbIdPK6K96kB7kkjZiyWfJPhSLjwUpauaK7wyxwAGDgye1N4hXpZ60ajRrESrxR2wKIgSIFyr0Q7nUK4vCw7LFjhOCnXwqF6aQNTBKbyzRvR849dCmgn6-7YeO9eI7ooSRKpXYIGuAlCXAojsLSxp0PlVMys6SqMxuFxflvUgt2jipdXYW4NH1yEyO_e2mOS1QzeRp8__S-5jZy0]--></g></svg>

<svg xmlns="http://www.w3.org/2000/svg" width="585" height="352" preserveAspectRatio="none" style="width:585px;height:352px"><rect width="285" height="39.789" x="16.15" y="206.58" fill="#3D176E" rx="2.5" ry="2.5" style="stroke:#000d19;stroke-width:.5"/><circle cx="31.15" cy="226.475" r="11" fill="#ADD1B2" style="stroke:#181818;stroke-width:1"/><path d="M34.119 232.115q-.578.297-1.219.438-.64.156-1.344.156-2.5 0-3.828-1.64-1.312-1.657-1.312-4.782t1.312-4.781q1.328-1.656 3.828-1.656.703 0 1.344.156.656.156 1.219.453v2.719q-.625-.578-1.219-.844-.594-.281-1.219-.281-1.344 0-2.031 1.078-.688 1.062-.688 3.156 0 2.094.688 3.172.688 1.062 2.031 1.062.625 0 1.219-.265.594-.281 1.219-.86v2.72Z"/><text x="50.15" y="232.36" fill="#D9B8FF" font-family="Helvetica" font-size="17" textLength="243">aws_api_gateway_authorizer</text><rect width="270" height="39.789" x="245.65" y="106.79" fill="#3D176E" rx="2.5" ry="2.5" style="stroke:#000d19;stroke-width:.5"/><circle cx="260.65" cy="126.684" r="11" fill="#ADD1B2" style="stroke:#181818;stroke-width:1"/><path d="M263.619 132.325q-.578.297-1.219.438-.64.156-1.344.156-2.5 0-3.828-1.64-1.312-1.657-1.312-4.782t1.312-4.781q1.328-1.656 3.828-1.656.703 0 1.344.156.656.156 1.219.453v2.719q-.625-.579-1.219-.844-.594-.281-1.219-.281-1.344 0-2.031 1.078-.688 1.062-.688 3.156 0 2.094.688 3.172.688 1.062 2.031 1.062.625 0 1.219-.265.594-.281 1.219-.86v2.72Z"/><text x="279.65" y="132.57" fill="#D9B8FF" font-family="Helvetica" font-size="17" textLength="228">aws_api_gateway_resource</text><rect width="265" height="39.789" x="248.15" y="7" fill="#3D176E" rx="2.5" ry="2.5" style="stroke:#000d19;stroke-width:.5"/><circle cx="263.15" cy="26.895" r="11" fill="#ADD1B2" style="stroke:#181818;stroke-width:1"/><path d="M266.119 32.535q-.578.297-1.219.438-.64.156-1.344.156-2.5 0-3.828-1.64-1.312-1.657-1.312-4.782t1.312-4.781q1.328-1.656 3.828-1.656.703 0 1.344.156.656.156 1.219.453v2.719q-.625-.578-1.219-.844-.594-.281-1.219-.281-1.344 0-2.031 1.078-.688 1.062-.688 3.156 0 2.094.688 3.172.688 1.062 2.031 1.062.625 0 1.219-.265.594-.281 1.219-.86v2.72Z"/><text x="282.15" y="32.78" fill="#D9B8FF" font-family="Helvetica" font-size="17" textLength="223">aws_api_gateway_rest_api</text><rect width="157" height="39.789" x="53.15" y="106.79" fill="#3D176E" rx="2.5" ry="2.5" style="stroke:#000d19;stroke-width:.5"/><circle cx="68.15" cy="126.684" r="11" fill="#ADD1B2" style="stroke:#181818;stroke-width:1"/><path d="M71.119 132.325q-.578.297-1.219.438-.64.156-1.344.156-2.5 0-3.828-1.64-1.312-1.657-1.312-4.782t1.312-4.781q1.328-1.656 3.828-1.656.703 0 1.344.156.656.156 1.219.453v2.719q-.625-.579-1.219-.844-.594-.281-1.219-.281-1.343 0-2.031 1.078-.688 1.062-.688 3.156 0 2.094.688 3.172.688 1.062 2.031 1.062.625 0 1.219-.265.594-.281 1.219-.86v2.72Z"/><text x="87.15" y="132.57" fill="#D9B8FF" font-family="Helvetica" font-size="17" textLength="115">aws_iam_role</text><rect width="224" height="39.789" x="268.65" y="306.37" fill="#3D176E" rx="2.5" ry="2.5" style="stroke:#000d19;stroke-width:.5"/><circle cx="283.65" cy="326.264" r="11" fill="#ADD1B2" style="stroke:#181818;stroke-width:1"/><path d="M286.619 331.905q-.578.297-1.219.438-.64.156-1.344.156-2.5 0-3.828-1.64-1.312-1.657-1.312-4.782t1.312-4.781q1.328-1.656 3.828-1.656.703 0 1.344.156.656.156 1.219.453v2.719q-.625-.579-1.219-.844-.594-.281-1.219-.281-1.344 0-2.031 1.078-.688 1.062-.688 3.156 0 2.094.688 3.172.688 1.062 2.031 1.062.625 0 1.219-.265.594-.281 1.219-.86v2.72Z"/><text x="302.65" y="332.15" fill="#D9B8FF" font-family="Helvetica" font-size="17" textLength="182">aws_lambda_function</text><path fill="none" d="M202.51 246.8c37.25 16.4 90.65 39.93 129.26 56.94" style="stroke:#1a83af;stroke-width:2"/><path fill="#1A83AF" d="m335.88 305.99-6.623-7.29 2.048 5.274-5.274 2.048 9.849-.032z" style="stroke:#1a83af;stroke-width:2"/><path fill="none" d="M336.79 147.01c-37.25 16.4-90.65 39.93-129.26 56.94" style="stroke:#1a83af;stroke-width:2"/><path fill="#1A83AF" d="m203.42 206.2 9.849.032-5.274-2.048 2.048-5.273-6.623 7.289z" style="stroke:#1a83af;stroke-width:2"/><path fill="none" d="M380.65 146.99v153.28" style="stroke:#1a83af;stroke-width:2"/><path fill="#1A83AF" d="m380.65 304.88 4-9-4 4-4-4 4 9z" style="stroke:#1a83af;stroke-width:2"/><path fill="none" d="M247.93 41.22C162.41 52.87 62.36 73.28 35.65 106.79c-29.65 37.2 26.07 74.36 71.87 96.93" style="stroke:#1a83af;stroke-width:2"/><path fill="#1A83AF" d="m111.77 206.27-6.367-7.514 1.864 5.341-5.341 1.864 9.844.309z" style="stroke:#1a83af;stroke-width:2"/><path fill="none" d="M380.65 47.22v53.31" style="stroke:#1a83af;stroke-width:2"/><path fill="#1A83AF" d="m380.65 105.41 4-9-4 4-4-4 4 9z" style="stroke:#1a83af;stroke-width:2"/><path fill="none" d="M454.08 47.25c30.12 11.95 61.99 30.71 79.57 59.54 45.24 74.23-58.14 157.07-116.5 195.98" style="stroke:#1a83af;stroke-width:2"/><path fill="#1A83AF" d="m413.34 305.95 9.718-1.602-5.54-1.145 1.144-5.54-5.322 8.287z" style="stroke:#1a83af;stroke-width:2"/><path fill="none" d="M136.98 147.01c4.26 15.4 10.24 37.07 14.84 53.74" style="stroke:#1a83af;stroke-width:2"/><path fill="#1A83AF" d="m153.33 205.2 1.462-9.74-2.792 4.92-4.92-2.792 6.25 7.612z" style="stroke:#1a83af;stroke-width:2"/></svg>
